src/telerik-icons/solid/barcode-scanner.svg

<?xml version="1.0" encoding="utf-8"?>
<svg xmlns="http://www.w3.org/2000/svg" width="512" height="512" viewBox="0 0 512 512">
  <path d="M32 96H0V0h96v32H32v64zm0 288H0v96h96v-32H32v-64zM416 0v32h64v64h32V0h-96zm64 448h-64v32h96v-96h-32v64zm-192-32h32V288h-32v128zm32-352h-32v128h32V64zm-64 0h-32v128h32V64zM128 416h64V288h-64v128zm-64 0h32V288H64v128zM192 64h-64v128h64V64zm32 352h32V288h-32v128zM64 64v128h32V64H64zm384 0h-32v128h32V64zm0 352V288h-32v128h32zm-96 0h32V288h-32v128zm32-352h-32v128h32V64zm96 160H32v32h448v-32z"/>
</svg>

<?xml version="1.0" encoding="utf-8"?>
<!-- Generator: Adobe Illustrator 23.0.4, SVG Export Plug-In . SVG Version: 6.00 Build 0)  -->
<svg xmlns="http://www.w3.org/2000/svg" width="512" height="512" viewBox="0 0 512 512">
<path d="M32,96H0V0h96v32H32V96z M32,384H0v96h96v-32H32V384z M416,0v32h64v64h32V0H416z M480,448h-64v32h96v-96h-32V448z M288,416
	h32V288h-32V416z M320,64h-32v128h32V64z M256,64h-32v128h32V64z M128,416h64V288h-64V416z M64,416h32V288H64V416z M192,64h-64v128
	h64V64z M224,416h32V288h-32V416z M64,64v128h32V64H64z M448,64h-32v128h32V64z M448,416V288h-32v128H448z M352,416h32V288h-32V416z
	 M384,64h-32v128h32V64z M480,224H32v32h448V224z" />
</svg>
